X: 390
T: Jun xipian diao
L: 1/16
M: 2/4
K: Bb
d'2 d'2 f' f' f' g' [I:setbarnb 1]| 
f'4d'4 | 
f' c'2 d' f' f'2 c' | 
b8 | 
d'2 c' d' f'2 f' d' | 
c'2 b c' d'2 f'2 | 
b c' a g2< f2 g | 
g b f g a c' g2 | 
f8 |]

@@@ Tune index: 9264
